lib/brands/icons/uber.svg

<svg xmlns="http://www.w3.org/2000/svg" fill="none" aria-hidden="true" viewBox="0 0 48 48"><g id="uber-Icon"><path id="Vector" fill="black" d="M39.2833 6H8.72471C7.2217 6 6 7.22143 6 8.72411V39.2679C6 40.7786 7.2217 42 8.72471 42H39.2753C40.7783 42 42 40.7786 42 39.2759V8.72411C42.008 7.22143 40.7863 6 39.2833 6ZM25.0971 34.8563C19.1011 35.4589 13.7482 31.0875 13.1453 25.0929H20.7327V26.7321C20.7327 27.0295 20.9739 27.2786 21.2793 27.2786H26.7368C27.0341 27.2786 27.2833 27.0375 27.2833 26.7321V21.2759C27.2833 20.9786 27.0422 20.7295 26.7368 20.7295H21.2793C20.9819 20.7295 20.7327 20.9705 20.7327 21.2759V22.9152H13.1453C13.708 17.3384 18.4019 13.0955 24.004 13.0955C29.6061 13.0955 34.3 17.3384 34.8627 22.9152C35.4655 28.9018 31.0931 34.2536 25.0971 34.8563V34.8563Z"/></g></svg>

<svg xmlns="http://www.w3.org/2000/svg" fill="none" aria-hidden="true" viewBox="0 0 48 48"><path fill="#000" d="M39.283 6H8.725A2.727 2.727 0 0 0 6 8.724v30.544A2.728 2.728 0 0 0 8.725 42h30.55A2.727 2.727 0 0 0 42 39.276V8.724A2.715 2.715 0 0 0 39.283 6ZM25.097 34.856c-5.996.603-11.349-3.769-11.952-9.763h7.588v1.64c0 .296.24.546.546.546h5.458a.547.547 0 0 0 .546-.547v-5.456a.547.547 0 0 0-.546-.546h-5.458a.547.547 0 0 0-.546.546v1.64h-7.588a10.915 10.915 0 0 1 21.718 0c.602 5.986-3.77 11.338-9.766 11.94Z"/></svg>
